X:1
T:Seeking the Lost (Ogden)
T:Seeking the Lost (Ogden)
T:William Augustine Ogden
T:William Augustine Ogden, 1886
T:Public Domain Courtesy of the Cyber Hymnal™
T:Public Domain Courtesy of the Cyber Hymnal™
C:William Augustine Ogden
Z:Public Domain
Z:Courtesy of the Cyber Hymnal™
%%score ( 1 2 ) ( 3 4 )
L:1/8
Q:1/4=115
M:9/8
K:Bb
V:1 treble 
V:2 treble 
V:3 bass 
V:4 bass 
V:1
 [DF][^C=E][DF] | [DB]3 [DB]3 [Fd][Fc][FB] | [EG]3 [EG]3 [GB][FA][EG] | [DF]3 [DF]3 [FB][Fc][Fd] | %4
w: 1.~Seek- ing the|lost, yes, kind- ly en-|treat- ing Wand- er- ers|on the mount- ain a-|
w: 2.~Seek- ing the|lost and point- ing to|Je- sus Souls that are|weak and hearts that are|
w: 3.~Thus would I|go on mis- sions of|mer- cy, Fol- low- ing|Christ from day un- to|
 [Fc]6 [Fc][F=B][Fc] | [Fe]3 [Fe]3 [Fd][=E^c][Fd] | [Ff]3 [Fd]3 [GB][FA][EG] | %7
w: stray; “Come un- to|Me,” His mes- sage re-|peat- ing, Words of the|
w: sore, Lead- ing them|forth in ways of sal-|va- tion, Show- ing the|
w: day, Cheer- ing the|faint and rais- ing the|fall- en, Point- ing the|
 [DF]3 [Fd]3 [Ec][DB][Ec] | [DB]6 ||[M:12/8]"^Refrain" z3 | z3 [EG][EG][EG] [EG]2 z z3 | %11
w: Mas- ter speak- ing to-|day.||Go- ing a- far|
w: path to life ev- er-|more.|||
w: lost to Je- sus, the|Way.|||
 z2 [DF] [DF]2 [DF] [DF]2 [DF] z3 | z3 [EF][EF][EF] [EF]2 [EF] F2 [A,F] x | %13
w: up- on the mount- ain,|Bring- ing the wand- ’rer back a-|
w: ||
w: ||
 [B,F]3 [B,F]2 [B,F] [B,F]3 z3 | z3 [EG][EG][EG] [EG]2 z z3 | z2 [DF] [DF]2 [DF] [DF]2 [DF] z3 | %16
w: gain, back a- gain|In- to the fold|of my Re- deem- er,|
w: |||
w: |||
 z3 [EF][EF][EF] [EF]2 [EF] F2 [A,F] x | ([B,D]2 [B,D] [B,E]2 [B,E] !fermata![B,D]3) |] %18
w: Je- sus, the Lamb for sin- ners|slain. * * * *|
w: ||
w: ||
V:2
 x3 | x9 | x9 | x9 | x9 | x9 | x9 | x9 | x6 ||[M:12/8] x3 | x12 | x12 | x9 (CB,) x2 | x12 | x12 | %15
 x12 | x9 (CB,) x2 | x9 |] %18
V:3
 [B,,B,][B,,B,][B,,B,] | [B,,F,]3 [B,,F,]3 [B,,B,][C,A,][D,B,] | %2
w: ~ ~ ~|~ ~ ~ ~ ~|
 [E,B,]3 [E,B,]3 [E,B,][E,B,][E,B,] | [B,,B,]3 [B,,B,]3 [D,B,][C,A,][B,,B,] | %4
w: ~ ~ ~ ~ ~|~ ~ ~ ~ ~|
 [F,A,]6 [F,A,][F,^G,][F,A,] | [F,C]3 [F,C]3 [B,,B,][B,,B,][B,,B,] | %6
w: ~ ~ ~ ~|~ ~ ~ ~ ~|
 [B,,D]3 [B,,B,]3 [E,B,][E,B,][E,B,] | [F,B,]3 F,3 F,F,F, | [B,,F,]6 ||[M:12/8] B,,C,D, | %10
w: ~ ~ ~ ~ ~|~ ~ ~ ~ ~|~|Go- ing a-|
 (z3 B,B,B, [E,B,]2) E, G, x2 | (z2 B,) (B,2 B, [B,,B,]2 B,) D,C,B,, | %12
w: * * * * far up-|* on * * * the mount- ain,|
 (z3 A,2) [F,A,] F,2 [C,F,] x4 | (F,3 [D,F,]3) B,,C,D, x3 | z3 B,B,B, [E,B,]2 E, G, x2 | %15
w: * Bring- ing the|wand- * * ’rer back|* * * * a- gain,|
 (z2 B,) (B,2 B, [B,,B,]2 B,) D,C,B,, | (z3 A,2) [F,A,] F,2 [C,F,] x4 | %17
w: * In- * * * to the fold|* of my Re-|
 (F,2 F, G,2 G,) !fermata![B,,F,]3 |] %18
w: deem- * * * *|
V:4
 x3 | x9 | x9 | x9 | x9 | x9 | x9 | x3 F,3 F,F,F, | x6 ||[M:12/8] x3 | (E,6- E,F,) x4 | %11
 (B,3 B,,3-) x6 | (F,6 A,A,A,F,G,) (E,D,) | D,6 F,2 F, x3 | (E,6- E,F,) x4 | (B,3 B,,3-) x6 | %16
 (F,6 A,A,A,F,G,) (E,D,) | B,,6- x3 |] %18

